SF_Symbols/heater.vertical.fill.svg

<?xml version="1.0" encoding="UTF-8"?>
<svg xmlns="http://www.w3.org/2000/svg" xmlns:xlink="http://www.w3.org/1999/xlink" width="24" height="24" viewBox="0 0 24 24" version="1.1">
<g id="surface1">
<path style=" stroke:none;fill-rule:nonzero;fill:rgb(100%,100%,100%);fill-opacity:1;" d="M 3.054688 23.699219 L 8.867188 23.699219 C 9.511719 23.699219 10.027344 23.507812 10.414062 23.128906 C 10.804688 22.746094 10.996094 22.242188 10.996094 21.609375 L 10.996094 3.261719 C 10.996094 2.632812 10.804688 2.125 10.414062 1.742188 C 10.027344 1.363281 9.511719 1.171875 8.867188 1.171875 L 3.054688 1.171875 C 2.414062 1.171875 1.898438 1.363281 1.507812 1.742188 C 1.121094 2.125 0.929688 2.632812 0.929688 3.261719 L 0.929688 21.609375 C 0.929688 22.242188 1.121094 22.746094 1.507812 23.128906 C 1.898438 23.507812 2.414062 23.699219 3.054688 23.699219 Z M 8.429688 8.484375 C 8.289062 8.484375 8.175781 8.4375 8.082031 8.34375 C 7.988281 8.242188 7.941406 8.125 7.941406 7.988281 L 7.941406 4.171875 C 7.941406 4.035156 7.988281 3.917969 8.082031 3.824219 C 8.175781 3.726562 8.289062 3.675781 8.429688 3.675781 C 8.566406 3.675781 8.679688 3.726562 8.773438 3.824219 C 8.867188 3.917969 8.914062 4.035156 8.914062 4.171875 L 8.914062 7.988281 C 8.914062 8.125 8.867188 8.242188 8.773438 8.34375 C 8.679688 8.4375 8.566406 8.484375 8.429688 8.484375 Z M 6.441406 8.484375 C 6.296875 8.484375 6.175781 8.4375 6.074219 8.34375 C 5.980469 8.242188 5.933594 8.125 5.933594 7.988281 L 5.933594 4.171875 C 5.933594 4.035156 5.980469 3.917969 6.074219 3.824219 C 6.175781 3.726562 6.296875 3.675781 6.441406 3.675781 C 6.570312 3.675781 6.683594 3.726562 6.777344 3.824219 C 6.871094 3.917969 6.917969 4.035156 6.917969 4.171875 L 6.917969 7.988281 C 6.917969 8.125 6.871094 8.242188 6.777344 8.34375 C 6.683594 8.4375 6.570312 8.484375 6.441406 8.484375 Z M 8.429688 14.804688 C 8.289062 14.804688 8.175781 14.757812 8.082031 14.664062 C 7.988281 14.5625 7.941406 14.445312 7.941406 14.304688 L 7.941406 10.492188 C 7.941406 10.359375 7.988281 10.246094 8.082031 10.152344 C 8.175781 10.054688 8.289062 10.003906 8.429688 10.003906 C 8.566406 10.003906 8.679688 10.054688 8.773438 10.152344 C 8.867188 10.246094 8.914062 10.359375 8.914062 10.492188 L 8.914062 14.304688 C 8.914062 14.445312 8.867188 14.5625 8.773438 14.664062 C 8.679688 14.757812 8.566406 14.804688 8.429688 14.804688 Z M 6.441406 14.804688 C 6.296875 14.804688 6.175781 14.757812 6.074219 14.664062 C 5.980469 14.5625 5.933594 14.445312 5.933594 14.304688 L 5.933594 10.492188 C 5.933594 10.359375 5.980469 10.246094 6.074219 10.152344 C 6.175781 10.054688 6.296875 10.003906 6.441406 10.003906 C 6.570312 10.003906 6.683594 10.054688 6.777344 10.152344 C 6.871094 10.246094 6.917969 10.359375 6.917969 10.492188 L 6.917969 14.304688 C 6.917969 14.445312 6.871094 14.5625 6.777344 14.664062 C 6.683594 14.757812 6.570312 14.804688 6.441406 14.804688 Z M 8.429688 21.140625 C 8.289062 21.140625 8.175781 21.089844 8.082031 20.992188 C 7.988281 20.898438 7.941406 20.785156 7.941406 20.652344 L 7.941406 16.835938 C 7.941406 16.699219 7.988281 16.582031 8.082031 16.480469 C 8.175781 16.382812 8.289062 16.332031 8.429688 16.332031 C 8.566406 16.332031 8.679688 16.382812 8.773438 16.480469 C 8.867188 16.582031 8.914062 16.699219 8.914062 16.835938 L 8.914062 20.652344 C 8.914062 20.785156 8.867188 20.898438 8.773438 20.992188 C 8.679688 21.089844 8.566406 21.140625 8.429688 21.140625 Z M 6.441406 21.140625 C 6.296875 21.140625 6.175781 21.089844 6.074219 20.992188 C 5.980469 20.898438 5.933594 20.785156 5.933594 20.652344 L 5.933594 16.835938 C 5.933594 16.699219 5.980469 16.582031 6.074219 16.480469 C 6.175781 16.382812 6.296875 16.332031 6.441406 16.332031 C 6.570312 16.332031 6.683594 16.382812 6.777344 16.480469 C 6.871094 16.582031 6.917969 16.699219 6.917969 16.835938 L 6.917969 20.652344 C 6.917969 20.785156 6.871094 20.898438 6.777344 20.992188 C 6.683594 21.089844 6.570312 21.140625 6.441406 21.140625 Z M 14.699219 11.304688 C 15.199219 11.304688 15.65625 11.238281 16.070312 11.101562 C 16.488281 10.960938 16.882812 10.792969 17.25 10.59375 C 17.625 10.386719 17.992188 10.183594 18.347656 9.984375 C 18.710938 9.785156 19.082031 9.617188 19.460938 9.476562 C 19.84375 9.339844 20.25 9.273438 20.679688 9.273438 C 20.9375 9.273438 21.179688 9.304688 21.402344 9.367188 C 21.632812 9.421875 21.882812 9.523438 22.152344 9.675781 C 22.320312 9.769531 22.476562 9.792969 22.613281 9.75 C 22.757812 9.699219 22.867188 9.621094 22.941406 9.515625 C 23.035156 9.378906 23.070312 9.21875 23.042969 9.039062 C 23.019531 8.855469 22.902344 8.710938 22.695312 8.597656 C 22.078125 8.234375 21.40625 8.054688 20.679688 8.054688 C 20.175781 8.054688 19.710938 8.121094 19.285156 8.257812 C 18.867188 8.398438 18.46875 8.570312 18.09375 8.773438 C 17.71875 8.976562 17.351562 9.179688 16.996094 9.382812 C 16.640625 9.585938 16.273438 9.753906 15.898438 9.890625 C 15.523438 10.027344 15.125 10.097656 14.699219 10.097656 C 14.445312 10.097656 14.199219 10.066406 13.96875 10.003906 C 13.742188 9.941406 13.492188 9.832031 13.21875 9.675781 C 13.054688 9.585938 12.902344 9.570312 12.757812 9.617188 C 12.617188 9.664062 12.507812 9.742188 12.429688 9.863281 C 12.351562 9.992188 12.320312 10.148438 12.347656 10.332031 C 12.371094 10.507812 12.480469 10.648438 12.675781 10.761719 C 12.980469 10.957031 13.304688 11.097656 13.640625 11.183594 C 13.984375 11.265625 14.335938 11.304688 14.699219 11.304688 Z M 14.710938 14.0625 C 15.203125 14.0625 15.660156 13.992188 16.078125 13.855469 C 16.496094 13.71875 16.890625 13.550781 17.257812 13.351562 C 17.632812 13.148438 18 12.949219 18.355469 12.75 C 18.71875 12.542969 19.085938 12.371094 19.460938 12.234375 C 19.84375 12.097656 20.25 12.027344 20.679688 12.027344 C 20.945312 12.027344 21.1875 12.058594 21.414062 12.121094 C 21.644531 12.179688 21.894531 12.28125 22.164062 12.429688 C 22.324219 12.523438 22.476562 12.550781 22.621094 12.507812 C 22.765625 12.457031 22.875 12.378906 22.949219 12.273438 C 23.039062 12.132812 23.070312 11.976562 23.042969 11.804688 C 23.023438 11.621094 22.914062 11.472656 22.714844 11.351562 C 22.085938 10.992188 21.40625 10.808594 20.679688 10.808594 C 20.175781 10.808594 19.710938 10.878906 19.285156 11.015625 C 18.867188 11.152344 18.46875 11.324219 18.09375 11.53125 C 17.726562 11.730469 17.363281 11.933594 17.007812 12.140625 C 16.648438 12.339844 16.285156 12.507812 15.910156 12.648438 C 15.535156 12.785156 15.132812 12.851562 14.710938 12.851562 C 14.445312 12.851562 14.199219 12.820312 13.96875 12.757812 C 13.742188 12.695312 13.496094 12.589844 13.226562 12.441406 C 13.066406 12.347656 12.910156 12.324219 12.757812 12.375 C 12.617188 12.417969 12.507812 12.5 12.429688 12.617188 C 12.351562 12.75 12.320312 12.90625 12.347656 13.085938 C 12.371094 13.261719 12.484375 13.40625 12.683594 13.519531 C 12.992188 13.710938 13.3125 13.851562 13.648438 13.941406 C 13.992188 14.023438 14.347656 14.0625 14.710938 14.0625 Z M 14.699219 16.820312 C 15.199219 16.820312 15.65625 16.75 16.070312 16.613281 C 16.488281 16.476562 16.882812 16.304688 17.25 16.105469 C 17.625 15.90625 17.992188 15.707031 18.347656 15.507812 C 18.710938 15.300781 19.082031 15.128906 19.460938 14.992188 C 19.84375 14.851562 20.25 14.785156 20.679688 14.785156 C 20.9375 14.785156 21.179688 14.816406 21.402344 14.878906 C 21.632812 14.933594 21.882812 15.039062 22.152344 15.195312 C 22.320312 15.289062 22.476562 15.316406 22.613281 15.273438 C 22.757812 15.222656 22.867188 15.140625 22.941406 15.027344 C 23.035156 14.898438 23.070312 14.742188 23.042969 14.558594 C 23.019531 14.378906 22.902344 14.226562 22.695312 14.109375 C 22.078125 13.746094 21.40625 13.566406 20.679688 13.566406 C 20.175781 13.566406 19.710938 13.632812 19.285156 13.773438 C 18.867188 13.910156 18.46875 14.082031 18.09375 14.289062 C 17.71875 14.488281 17.351562 14.691406 16.996094 14.898438 C 16.640625 15.097656 16.273438 15.265625 15.898438 15.402344 C 15.523438 15.539062 15.125 15.609375 14.699219 15.609375 C 14.445312 15.609375 14.199219 15.578125 13.96875 15.515625 C 13.742188 15.453125 13.492188 15.347656 13.21875 15.195312 C 13.054688 15.101562 12.902344 15.082031 12.757812 15.132812 C 12.617188 15.175781 12.507812 15.257812 12.429688 15.375 C 12.351562 15.507812 12.320312 15.664062 12.347656 15.84375 C 12.371094 16.023438 12.480469 16.171875 12.675781 16.285156 C 12.980469 16.472656 13.304688 16.609375 13.640625 16.695312 C 13.984375 16.777344 14.335938 16.820312 14.699219 16.820312 Z M 14.699219 16.820312 "/>
</g>
</svg>

<svg xmlns="http://www.w3.org/2000/svg" width="24" height="24"><path style="stroke:none;fill-rule:nonzero;fill:#fff;fill-opacity:1" d="M3.055 23.7h5.812c.645 0 1.16-.192 1.547-.571.39-.383.582-.887.582-1.52V3.262c0-.63-.191-1.137-.582-1.52-.387-.379-.902-.57-1.547-.57H3.055c-.64 0-1.157.191-1.547.57-.387.383-.578.89-.578 1.52v18.347c0 .633.191 1.137.578 1.52.39.379.906.57 1.547.57ZM8.43 8.483a.465.465 0 0 1-.348-.14.523.523 0 0 1-.14-.356V4.172c0-.137.046-.254.14-.348a.453.453 0 0 1 .348-.148c.136 0 .25.05.343.148.094.094.141.211.141.348v3.816a.499.499 0 0 1-.14.356.457.457 0 0 1-.344.14Zm-1.989 0a.527.527 0 0 1-.367-.14.523.523 0 0 1-.14-.356V4.172c0-.137.046-.254.14-.348a.517.517 0 0 1 .367-.148c.13 0 .243.05.336.148.094.094.141.211.141.348v3.816a.499.499 0 0 1-.14.356.47.47 0 0 1-.337.14Zm1.989 6.32a.465.465 0 0 1-.348-.14.498.498 0 0 1-.14-.36v-3.812c0-.133.046-.246.14-.34a.453.453 0 0 1 .348-.148c.136 0 .25.05.343.148.094.094.141.207.141.34v3.813c0 .14-.047.258-.14.36a.457.457 0 0 1-.344.14Zm-1.989 0a.545.545 0 0 1-.367-.14.498.498 0 0 1-.14-.36v-3.812c0-.133.046-.246.14-.34a.501.501 0 0 1 .367-.148c.13 0 .243.05.336.148.094.094.141.207.141.34v3.813c0 .14-.047.258-.14.36a.47.47 0 0 1-.337.14Zm1.989 6.337a.466.466 0 0 1-.348-.149.486.486 0 0 1-.14-.34v-3.816c0-.137.046-.254.14-.356a.453.453 0 0 1 .348-.148c.136 0 .25.05.343.148.094.102.141.22.141.356v3.816a.454.454 0 0 1-.14.34.466.466 0 0 1-.344.149Zm-1.989 0a.517.517 0 0 1-.367-.149.47.47 0 0 1-.14-.34v-3.816c0-.137.046-.254.14-.356a.501.501 0 0 1 .367-.148c.13 0 .243.05.336.148.094.102.141.22.141.356v3.816a.454.454 0 0 1-.14.34.455.455 0 0 1-.337.149Zm8.258-9.836c.5 0 .957-.067 1.371-.203.418-.141.813-.309 1.18-.508.375-.207.742-.41 1.098-.61.363-.199.734-.367 1.113-.507.383-.137.789-.204 1.219-.204.258 0 .5.032.722.094.23.055.48.156.75.309.168.094.325.117.461.074a.664.664 0 0 0 .328-.234.646.646 0 0 0 .102-.477c-.023-.184-.14-.328-.348-.441a3.894 3.894 0 0 0-2.015-.543 4.45 4.45 0 0 0-1.395.203c-.418.14-.816.312-1.191.515-.375.204-.742.407-1.098.61-.351.199-.719.37-1.098.508-.386.136-.789.207-1.199.207-.254 0-.5-.032-.73-.094a3.287 3.287 0 0 1-.75-.328.561.561 0 0 0-.461-.059.588.588 0 0 0-.328.246.696.696 0 0 0-.082.469c.023.176.132.316.328.43.297.191.62.332.965.422.343.082.695.12 1.058.12Zm.012 2.758c.492 0 .95-.07 1.367-.208.406-.132.8-.3 1.18-.503.375-.204.742-.403 1.097-.602.364-.207.73-.379 1.106-.516.383-.136.789-.207 1.219-.207.265 0 .508.032.734.094.23.059.48.16.75.309.16.093.313.12.457.078a.664.664 0 0 0 .328-.235.664.664 0 0 0 .094-.468c-.02-.184-.129-.332-.328-.453a4.002 4.002 0 0 0-2.035-.543c-.504 0-.97.07-1.395.207a6.574 6.574 0 0 0-1.191.515c-.367.2-.73.403-1.086.61-.36.199-.723.367-1.098.507a3.501 3.501 0 0 1-1.2.204c-.25 0-.5-.032-.741-.094a3.658 3.658 0 0 1-.742-.317.54.54 0 0 0-.47-.066.586.586 0 0 0-.327.242c-.082.14-.11.309-.082.469.023.176.136.32.336.434.308.19.629.332.964.421.344.082.7.121 1.063.121Zm-.012 2.757c.5 0 .957-.07 1.371-.207.407-.133.801-.304 1.18-.508.375-.199.742-.398 1.098-.597a6.85 6.85 0 0 1 1.113-.516c.383-.14.789-.207 1.219-.207.258 0 .5.031.722.094.23.055.48.16.75.316.168.094.325.121.461.078a.646.646 0 0 0 .328-.246.623.623 0 0 0 .102-.468c-.023-.18-.14-.332-.348-.45a3.857 3.857 0 0 0-2.015-.543c-.504 0-.97.067-1.395.207a6.574 6.574 0 0 0-1.191.516c-.375.2-.742.402-1.098.61-.355.199-.723.367-1.098.503-.386.137-.789.207-1.199.207-.254 0-.5-.03-.73-.093a3.526 3.526 0 0 1-.75-.32c-.164-.094-.317-.114-.461-.063a.6.6 0 0 0-.328.242.7.7 0 0 0-.082.469c.023.18.132.328.328.441.304.188.629.324.965.41.343.082.695.125 1.058.125Zm0 0"/></svg>
